!!!OTL: Sl&szlig;n le m&szlig;igh, S. 93
!!!id: I0545
**kern
*clefG2
*k[b-e-a-d-]
*E-:
{8b-
8cc
=1
8.dd-
16cc
8dd-
8ee-
8dd-
8cc
8b-
8a-
=2
4g
8.f
16e-
4e-}
=3
{8b-
8cc
=4
8.dd-
16cc
8dd-
8ee-
8dd-
8cc
8b-
8g
=5
4b-
8cc
8ee-
4.ee-}
=6
{8ee-
=7
4dd-
8dd-
8ee-
4cc
8b-
8g
=8
4g
8f
8e-
4e-}
=9
{8e-
16f
16g
=10
4a-
4dd-
4cc
8b-
8g
=11
4a-
8b-
8cc
4dd-}
=12
{8.b-
16a-
=13
4g
4f
4e-
8e-
8f
=14
4g
8f
8e-
4e-
8e-}
=15
{8f
=16
4g
8dd-
8cc
4b-
8a-
8g
=17
4a-
8b-
8cc
4dd-
8b-}
=18
{8a-
=19
4g
4f
4e-
8e-
8f
=20
4g
8b-
16cc
16dd
4ee-
8.b-}
=21
{16a-
=22
4.g
8e-
4.f
8e-
=23
2e-
4e-}
==
*-
!!!minrhy: 16
!!!meters: 4/4 ]  ZZ[8
!!!cut: Sl&szlig;n le m&szlig;igh, S. 93
!!!reg: Irland
!!!trd: O'SULLIVAN, Donal: Song of the Irish
!!!rhy1: X_X_  X_.XX_X_X_X_X_X_  X__X_.XX__
!!!rhy2: X_X_  X_.XX_X_X_X_X_X_  X__X_X_X__.
!!!key: I0545  16 Eb 4/4 ]  ZZ[8
!!!mod: ACHTTONSKALA DUR ?]  AMBITUS[8
!!!kad: 1+117b1551
!!!akz: 7b7b31_7b7b5+1_7b631_4647b_3131_3547b_313+1_3211_
!!!fot: 'a__b__c__bs"d__e__dw_f__
!!!for: 'a__b__c__d__dw_cw_e__f__
!!!fok: '^d_~a_\__~a_\__Ma_Sa_\__
!! PHRAS[AUFTAKTIG]
!!!fkt: Abschiedslied
!!!bem: Vorhalte weggelassen, Melismen!
!! IRISCHE V
!! PR[25] 2K[1] 2G[7] 3K[12] 3G[8] 4A[0] 4Ü[0] 5A[0] 6K[0] 6G[1]
!! 7K[2] 7G[0] 8A[0] MEHR[0] SI[31] ABS[110] SR[8] SP[23]
!! ST[36] 2k[9] 2g[19] 3k[6] 3g[8] 4d[0] 4ü[0] 5d[0] 6k[0] 6g[0]
!! 7k[0] 7g[0] 8d[1] mehr[0] si[44] dm[-13] sr[28] sp[15]
!! 1F[16] 2F[84] 3F[1] 4F[0] LF[0] 2P[0] 3P[0] 4P[0] TRI[0] DF[3] AB[116]
!! TF[0] U3K[0] U3[0] U4[0] U4Ü[0] U5[0] U6K[0] U6[0] U7K[0] U7[0]
!! N1[23] N2K[0] N2[6] N3K[0] N3[20] N4[14] N4Ü[0] N5[20] N6K[0] N6[4]
!!!n7k: 2] N7[4] O1[5] O2K[0] O2[3] O3K[0] O3[0] HÖ[1
!!!RNB: symbol: &szlig; = sz ligature (UTF-8: ÃŸ)
